X:1
T:Title
%%score { ( 1 3 5 ) | ( 2 4 ) }
L:1/8
Q:1/4=100
M:4/4
K:Ab
V:1 treble nm="Grand Piano"
V:3 treble 
V:5 treble 
V:2 treble 
V:4 treble 
V:1
 c>c d>c B>F G>F | E2 [Gd]2 [Gd]4 | E>F G>A [GB]>[Bd] [Ac]>B | A2 c2 c4 | e>e f>e c>A d>c | %5
w: L.~E.~Jones * * * * * * *|||||
 [FB]2 [Fc]2 [Fd]4 | [DF]>[FA] [EG]>F E>[EA] [FB]>[Fd] | c2 B2 [CA]4 | [Ec]6 z2 | [CE]4 z4 | %10
w: |||||
 [DB]6 z2 | [Ec]6[K:bass] z2 | e6 z2 | [FB]4 z4 | A2 E2 c3 B | A6 z2 |] %16
w: ||||||
V:2
 [A,E]>[A,E] [A,F]>[A,E] [A,D]>[K:bass][A,D] [A,E]>[A,D] | [A,C]2 [E,B,]2 [E,B,]4 | %2
 [E,G,]>[E,A,E] [E,B,E]>[E,CE] [E,E]>[E,E] [E,E]>[E,DE] | [A,CE]2 [A,E]2 [A,E]4 | %4
 [A,CA]>[A,CA] [A,DA]>[A,CA] [A,EA]>[K:bass][A,C] [G,B,E]>[A,E] | [D,A,]2 [C,=A,]2 [B,,B,]4 | %6
 [D,A,]>[D,A,] [D,A,]>[D,A,D] [C,A,]>[C,A,] [D,A,]>[D,A,] | [E,A,E]2 [E,D]2 [A,,E,]4 | %8
 [A,,A,]2 A,,A,, A,,2 [A,,A,]2 | [A,,A,]2 C,E, A,2 A,2 | [E,G,]2 E,E, E,2 z z/ G,/ | %11
 A,2 E,C, A,,2 z2 | A2- [A,A-][A,A-] A>E[K:bass] z z/ E/ | D,2 D,D, [D,A,]2 [D,A,]>[D,D] | %14
 [E,CE]2 [E,A,C]2 [E,A,E]3 [E,D] | .E,2 z2 z4 |] %16
V:3
 x8 | x8 | x8 | x8 | x8 | x8 | x8 | x8 | z2 A,A, A,2 [CA]>[DF] | z2 A,A, [CA]4 | %10
 z2 G,G, G,2 [A,CA]>[DB] | z2[K:bass] A,A, A,2 z2 | z2 CC z z/ c/ [Fd]>c | D2 DD [Fd]2 [Fc]>[FB] | %14
 x8 | CCDD C2 z2 |] %16
V:4
 x11/2[K:bass] x5/2 | x8 | x8 | x8 | x11/2[K:bass] x5/2 | x8 | x8 | x8 | x8 | x8 | z4 z2 E,2 | x8 | %12
 [A,C]2 z2 z2[K:bass] A,2 | x8 | x8 | A,,-[A,,-E,][A,,-F,][A,,-F,] [A,,E,]2 z2 |] %16
V:5
 x8 | x8 | x8 | x8 | x8 | x8 | x8 | x8 | x8 | x8 | x8 | x2[K:bass] x6 | z4 A,2 z2 | x8 | x8 | x8 |] %16

